X:11
T:K. V. 487/11
M:3/4
L:1/8
K:C major
V:1
+f+ c2 defe | (ed) d2 d2 | d2 efgf | (fe) e2 e2 | e2 fgag | ^fd =f3 e | (ed)dcde | c2 z2 z2 ::
V:2
z2 z2 +f+ C2 | G2 z (G^FG) | G,2 z2 G2 | c2 z c GE | C2 z2 cB | AdAB c2 | cG z2 G2 | CcGE C2 ::
V:1
d2 efgf | (^de) e2 z2 | gec'gfe | (ge) d2 z2 | c2 defe | d2 efgf | (eg) c2 B2 | c2 z2 z2 ::
V:2
BGBGBG | cGcGcG | cGeGcG | (ec) B2 G2 | z2 C2 c2- | c2 BA B2 | c2 E2G2 | C2G,2C2 ::
V:1
[K:F major] +p+ c6 | ^cd d3 g | (fedcde) | .f(agfed) | ^c4 (da) | =B4 (cg) | (gf)(fd)(c=B) | c2 z2 z2 ::
V:2
[K:F major] +p+ A2 z2 A2 | B2 z2 B2 | G2 c2 B2 | A2 z2 z2 | z G AG ^F2 | z F GF D2 | F2 z2 G2 | CcGE C2 ::
V:1
(e4f2) | (3gec B2 A2 | +p+ (e4f2) | (3gec B2 A2 | c6 | +mf+ (^cd) (d2>g2) | (fedcde) | f2 z2 z2 :|]
V:2
+mf+ (3CEG B2 A2 | (E4F2) | +p+ (3CEG B2 A2 | (E4F2) | A2F2A2 | +mf+ B2 F2 B2 | G2 c2 C2 | FAcA F2 :|]

